X:1612
T:Double Shuffle
O:england
M:6/8
L:1/8
S:Armitt MS
N:Stave lines almost missing but enough left to re-draw the stav
K:D major
F2G2|ABA AFA|ABA AFA|dcd Bcd|ecA aga|ABA AFA|ABA AFA|Bgf edc|d3D2:||:f/2
g/2|afd def|gec cde|fdB agf|ecA ABc|dBG GAB|AFD DFA|Bgf edc|d3D2:||
